static/img/kroki/84df46abb86409d9b700bf2f01b5bdc7.svg

<?xml version="1.0" encoding="us-ascii" standalone="no"?><svg xmlns="http://www.w3.org/2000/svg" xmlns:xlink="http://www.w3.org/1999/xlink" contentStyleType="text/css" height="152px" preserveAspectRatio="none" style="width:414px;height:152px;" version="1.1" viewBox="0 0 414 152" width="414px" zoomAndPan="magnify"><defs/><g><!--class gcp_vertex_ai_hyperparameter_tuning_job--><g id="elem_gcp_vertex_ai_hyperparameter_tuning_job"><rect codeLine="23" fill="#3D176E" height="39.7891" id="gcp_vertex_ai_hyperparameter_tuning_job" rx="2.5" ry="2.5" style="stroke:#000D19;stroke-width:0.5;" width="400" x="7" y="106.79"/><ellipse cx="22" cy="126.6845" fill="#ADD1B2" rx="11" ry="11" style="stroke:#181818;stroke-width:1.0;"/><path d="M24.9688,132.3252 Q24.3906,132.622 23.75,132.7627 Q23.1094,132.9189 22.4063,132.9189 Q19.9063,132.9189 18.5781,131.2783 Q17.2656,129.622 17.2656,126.497 Q17.2656,123.372 18.5781,121.7158 Q19.9063,120.0595 22.4063,120.0595 Q23.1094,120.0595 23.75,120.2158 Q24.4063,120.372 24.9688,120.6689 L24.9688,123.3877 Q24.3438,122.8095 23.75,122.5439 Q23.1563,122.2627 22.5313,122.2627 Q21.1875,122.2627 20.5,123.3408 Q19.8125,124.4033 19.8125,126.497 Q19.8125,128.5908 20.5,129.6689 Q21.1875,130.7314 22.5313,130.7314 Q23.1563,130.7314 23.75,130.4658 Q24.3438,130.1845 24.9688,129.6064 L24.9688,132.3252 Z " fill="#000000"/><text fill="#D9B8FF" font-family="Helvetica" font-size="17" lengthAdjust="spacing" textLength="358" x="41" y="132.5698">gcp_vertex_ai_hyperparameter_tuning_job</text></g><!--class gcp_vertex_ai_model--><g id="elem_gcp_vertex_ai_model"><rect codeLine="26" fill="#3D176E" height="39.7891" id="gcp_vertex_ai_model" rx="2.5" ry="2.5" style="stroke:#000D19;stroke-width:0.5;" width="218" x="98" y="7"/><ellipse cx="113" cy="26.8945" fill="#ADD1B2" rx="11" ry="11" style="stroke:#181818;stroke-width:1.0;"/><path d="M115.9688,32.5352 Q115.3906,32.832 114.75,32.9727 Q114.1094,33.1289 113.4063,33.1289 Q110.9063,33.1289 109.5781,31.4883 Q108.2656,29.832 108.2656,26.707 Q108.2656,23.582 109.5781,21.9258 Q110.9063,20.2695 113.4063,20.2695 Q114.1094,20.2695 114.75,20.4258 Q115.4063,20.582 115.9688,20.8789 L115.9688,23.5977 Q115.3438,23.0195 114.75,22.7539 Q114.1563,22.4727 113.5313,22.4727 Q112.1875,22.4727 111.5,23.5508 Q110.8125,24.6133 110.8125,26.707 Q110.8125,28.8008 111.5,29.8789 Q112.1875,30.9414 113.5313,30.9414 Q114.1563,30.9414 114.75,30.6758 Q115.3438,30.3945 115.9688,29.8164 L115.9688,32.5352 Z " fill="#000000"/><text fill="#D9B8FF" font-family="Helvetica" font-size="17" lengthAdjust="spacing" textLength="176" x="132" y="32.7798">gcp_vertex_ai_model</text></g><!--link gcp_vertex_ai_model to gcp_vertex_ai_hyperparameter_tuning_job--><g id="link_gcp_vertex_ai_model_gcp_vertex_ai_hyperparameter_tuning_job"><path codeLine="29" d="M207,47.22 C207,64.36 207,83.27 207,100.41 " fill="none" id="gcp_vertex_ai_model-to-gcp_vertex_ai_hyperparameter_tuning_job" style="stroke:#1A83AF;stroke-width:2.0;"/><polygon fill="#1A83AF" points="207,106.41,211,97.41,207,101.41,203,97.41,207,106.41" style="stroke:#1A83AF;stroke-width:2.0;"/></g><!--SRC=[ZP1FJuD04CNlV8fDUcu2DafxCK6IHY-DiTwC8Gix2okmIsQ7rchyxj9MpHRwn-kytxptPWebW47Tq8RLKAU0rhEbqWr7NhC8qQnZKnba8ocvd8HzSMuqNGGMl0Ps3zKAI6MyJpmNAYirMCkk7EcEPsMEfjLYRq_8jUqaqEHGSSMjZOXGfIs1KqRCqgcKVR9lEfg88Bo10MPG0FuWlk-BODP7BaQTlVkFMAeFO87xj8KX6DGSHEoeiostX5DoSEYlVhBZ8nT2wPnTExEdVIVKW0VpPS65MMzfoIlhnbW214ER1kB1LJ2R2XaUXHzEmLwsVHtBioPP0HAy9rmbHRU1Emle719gTLSbUJCf-_IyhwChjH5GxULZmlXb54JJIJH_7T_-Dypx1W00]--></g></svg>

<svg xmlns="http://www.w3.org/2000/svg" width="414" height="152" viewBox="0 0 414 152"><rect width="400" height="39.789" x="7" y="106.79" fill="#3D176E" rx="2.5" ry="2.5" style="stroke:#000d19;stroke-width:.5"/><circle cx="22" cy="126.684" r="11" fill="#ADD1B2" style="stroke:#181818;stroke-width:1"/><path d="M24.969 132.325q-.578.297-1.219.438-.64.156-1.344.156-2.5 0-3.828-1.64-1.312-1.657-1.312-4.782t1.312-4.781q1.328-1.656 3.828-1.656.703 0 1.344.156.656.156 1.219.453v2.719q-.625-.579-1.219-.844-.594-.281-1.219-.281-1.343 0-2.031 1.078-.687 1.062-.687 3.156t.687 3.172q.688 1.062 2.031 1.062.625 0 1.219-.265.594-.281 1.219-.86z"/><text x="41" y="132.57" fill="#D9B8FF" font-family="Helvetica" font-size="17" textLength="358">gcp_vertex_ai_hyperparameter_tuning_job</text><rect width="218" height="39.789" x="98" y="7" fill="#3D176E" rx="2.5" ry="2.5" style="stroke:#000d19;stroke-width:.5"/><circle cx="113" cy="26.895" r="11" fill="#ADD1B2" style="stroke:#181818;stroke-width:1"/><path d="M115.969 32.535q-.578.297-1.219.438-.64.156-1.344.156-2.5 0-3.828-1.64-1.312-1.657-1.312-4.782t1.312-4.781q1.328-1.656 3.828-1.656.703 0 1.344.156.656.156 1.219.453v2.719q-.625-.578-1.219-.844-.594-.281-1.219-.281-1.344 0-2.031 1.078-.687 1.062-.687 3.156t.687 3.172q.688 1.062 2.031 1.062.625 0 1.219-.265.594-.281 1.219-.86z"/><text x="132" y="32.78" fill="#D9B8FF" font-family="Helvetica" font-size="17" textLength="176">gcp_vertex_ai_model</text><path fill="none" d="M207 47.22v53.19" style="stroke:#1a83af;stroke-width:2"/><path fill="#1A83AF" d="m207 106.41 4-9-4 4-4-4z" style="stroke:#1a83af;stroke-width:2"/></svg>
